images_breeze_svg/cmd/32/mailmergewizard.svg

<svg viewBox="0 0 32 32" xmlns="http://www.w3.org/2000/svg"><path d="m5 5v4l-3 4v14h18v-1h-17v-12h2 .7871094l10.2128906 5.570312 10.212891-5.570312h.787109 2v2h1v-3l-3-4v-4zm1 1h20v6.974609l-10 5.455079-10-5.455079zm2 2v1h16v-1zm0 3v1h9v-1zm17.5 6c-1.380712 0-2.5 1.119288-2.5 2.5s1.119288 2.5 2.5 2.5 2.5-1.119288 2.5-2.5-1.119288-2.5-2.5-2.5zm0 6c-1.932996-.000001-3.5 1.79086-3.5 4h7c0-2.20914-1.567004-4.000001-3.5-4zm0 1c1.05817.0018 2.000793.802816 2.353516 2h-4.707032c.352723-1.197185 1.295346-1.998218 2.353516-2z" fill="#4d4d4d"/></svg>

<?xml version="1.0" encoding="UTF-8" standalone="no"?>
<svg
   xmlns:dc="http://purl.org/dc/elements/1.1/"
   xmlns:cc="http://creativecommons.org/ns#"
   xmlns:rdf="http://www.w3.org/1999/02/22-rdf-syntax-ns#"
   xmlns:svg="http://www.w3.org/2000/svg"
   xmlns="http://www.w3.org/2000/svg"
   xmlns:sodipodi="http://sodipodi.sourceforge.net/DTD/sodipodi-0.dtd"
   xmlns:inkscape="http://www.inkscape.org/namespaces/inkscape"
   viewBox="0 0 32 32"
   version="1.1"
   id="svg6"
   sodipodi:docname="mailmergewizard.svg"
   inkscape:version="0.92.4 (unknown)"
   inkscape:export-filename="/home/rizmut/Dokumen/Rizmut/Github/libreoffice-style-breeze/images_breeze/cmd/32/mailmergewizard.png"
   inkscape:export-xdpi="96"
   inkscape:export-ydpi="96">
  <metadata
     id="metadata10">
    <rdf:RDF>
      <cc:Work
         rdf:about="">
        <dc:format>image/svg+xml</dc:format>
        <dc:type
           rdf:resource="http://purl.org/dc/dcmitype/StillImage" />
        <dc:title></dc:title>
      </cc:Work>
    </rdf:RDF>
  </metadata>
  <sodipodi:namedview
     pagecolor="#ffffff"
     bordercolor="#666666"
     borderopacity="1"
     objecttolerance="10"
     gridtolerance="10"
     guidetolerance="10"
     inkscape:pageopacity="0"
     inkscape:pageshadow="2"
     inkscape:window-width="1360"
     inkscape:window-height="714"
     id="namedview8"
     showgrid="false"
     inkscape:zoom="7.375"
     inkscape:cx="-2.9152542"
     inkscape:cy="16"
     inkscape:window-x="0"
     inkscape:window-y="28"
     inkscape:window-maximized="1"
     inkscape:current-layer="svg6" />
  <defs
     id="defs3051">
    <style
       type="text/css"
       id="current-color-scheme">
      .ColorScheme-Text {
        color:#4d4d4d;
      }
      </style>
  </defs>
  <path
     style="fill:currentColor;fill-opacity:1;stroke:none"
     d="M 5 5 L 5 9 L 2 13 L 2 27 L 20 27 L 20 26 L 3 26 L 3 14 L 5 14 L 5.7871094 14 L 16 19.570312 L 26.212891 14 L 27 14 L 29 14 L 29 16 L 30 16 L 30 13 L 27 9 L 27 5 L 5 5 z M 6 6 L 26 6 L 26 12.974609 L 16 18.429688 L 6 12.974609 L 6 6 z M 8 8 L 8 9 L 24 9 L 24 8 L 8 8 z M 8 11 L 8 12 L 17 12 L 17 11 L 8 11 z M 25.5 17 C 24.119288 17 23 18.119288 23 19.5 C 23 20.880712 24.119288 22 25.5 22 C 26.880712 22 28 20.880712 28 19.5 C 28 18.119288 26.880712 17 25.5 17 z M 25.5 23 C 23.567004 22.999999 22 24.79086 22 27 L 29 27 C 29 24.79086 27.432996 22.999999 25.5 23 z M 25.5 24 C 26.55817 24.0018 27.500793 24.802816 27.853516 26 L 23.146484 26 C 23.499207 24.802815 24.44183 24.001782 25.5 24 z "
     class="ColorScheme-Text"
     id="path4" />
</svg>
